X: 32600
T: Planxty O'Rourke
R: jig
M: 6/8
K: Dminor
D|Ddc d2 e|fag fed|cAG F/G/AG|
{G}FEF D2 C|D2 B {d}cBc|D2 d d2 e|Aag a2 g|fed d2||
f|edc def|{B}AGF EDC|C2 c {d}c=Bc|
Ddd dc/A/G/E/|D/E/FD D/E/FD|C/D/EC C/D/EC|
E/A/AG FED|CA,A, A,2||C|D/D/Dd D/D/Dd|
D/D/DG EDC|D/D/Da fed|/
M:7/8
c/B/A/G/ A/c/d/e/ Hd2 a|
M:6/8
f>ed/c/ e>dc/A/|dcA GEC|D/D/Dd D/D/Dd|ECE D2||

